app/renderer/assets/image/components/ultrasound.svg

<?xml version="1.0" encoding="UTF-8"?>
<svg width="150px" height="150px" viewBox="0 0 150 150" version="1.1" xmlns="http://www.w3.org/2000/svg" xmlns:xlink="http://www.w3.org/1999/xlink">
    <!-- Generator: Sketch 46.1 (44463) - http://www.bohemiancoding.com/sketch -->
    <title>ultrasoundSensor</title>
    <desc>Created with Sketch.</desc>
    <defs></defs>
    <g id="Page-1" stroke="none" stroke-width="1" fill="none" fill-rule="evenodd">
        <g id="ultrasoundSensor">
            <polygon id="Shape" fill="#35363A" fill-rule="nonzero" points="41 110.607143 38.0434783 110.607143 38.0434783 119 35.9565217 119 35.9565217 110.607143 33 110.607143 33 109 41 109 41 110.607143"></polygon>
            <path d="M45.9069767,115.315789 L44.2325581,115.315789 L44.2325581,119 L42,119 L42,109 L45.9069767,109 C47.2093023,109 48.1395349,109.175439 48.8837209,109.701754 C49.627907,110.22807 49.8139535,110.929825 49.8139535,111.982456 C49.8139535,112.684211 49.627907,113.210526 49.255814,113.736842 C48.8837209,114.263158 48.5116279,114.614035 47.7674419,114.789474 L50,118.824561 L50,119 L47.5813953,119 L45.9069767,115.315789 Z M44.2325581,113.736842 L45.9069767,113.736842 C46.4651163,113.736842 46.8372093,113.561404 47.2093023,113.385965 C47.5813953,113.210526 47.5813953,112.684211 47.5813953,112.333333 C47.5813953,111.807018 47.3953488,111.45614 47.2093023,111.280702 C47.0232558,111.105263 46.4651163,110.929825 45.9069767,110.929825 L44.2325581,110.929825 L44.2325581,113.736842 Z" id="Shape" fill="#35363A" fill-rule="nonzero"></path>
            <polygon id="Shape" fill="#35363A" fill-rule="nonzero" points="54 119 52 119 52 109 54 109"></polygon>
            <polygon id="Shape" fill="#35363A" fill-rule="nonzero" points="98.2631579 114.714286 94.2105263 114.714286 94.2105263 117.392857 99 117.392857 99 119 92 119 92 109 99 109 99 110.607143 94.2105263 110.607143 94.2105263 113.107143 98.2631579 113.107143"></polygon>
            <path d="M108,115.666667 C108,116.719298 107.478261,117.596491 106.782609,118.122807 C106.086957,118.649123 105.217391,119 104,119 C102.782609,119 101.73913,118.649123 101.043478,117.77193 C100.347826,116.894737 100,115.666667 100,114.263158 L100,113.736842 C100,112.859649 100.173913,111.982456 100.521739,111.280702 C100.869565,110.578947 101.391304,110.052632 101.913043,109.526316 C102.434783,109 103.304348,109 104,109 C105.217391,109 106.086957,109.350877 106.782609,109.877193 C107.478261,110.403509 107.826087,111.280702 108,112.508772 L105.913043,112.508772 C105.913043,111.807018 105.73913,111.45614 105.391304,111.105263 C105.043478,110.754386 104.695652,110.754386 104,110.754386 C103.304348,110.754386 102.782609,110.929825 102.434783,111.45614 C102.086957,111.982456 101.913043,112.684211 101.913043,113.736842 L101.913043,114.438596 C101.913043,115.491228 102.086957,116.368421 102.434783,116.719298 C102.782609,117.070175 103.304348,117.421053 104,117.421053 C104.695652,117.421053 105.043478,117.245614 105.391304,117.070175 C105.73913,116.894737 105.913043,116.368421 105.913043,115.666667 L108,115.666667 L108,115.666667 Z" id="Shape" fill="#35363A" fill-rule="nonzero"></path>
            <polygon id="Shape" fill="#35363A" fill-rule="nonzero" points="117 119 114.957447 119 114.957447 114.789474 111.042553 114.789474 111.042553 119 109 119 109 109 111.042553 109 111.042553 113.035088 114.957447 113.035088 114.957447 109 117 109"></polygon>
            <rect id="Rectangle-path" fill="#252830" fill-rule="nonzero" x="44.1619718" y="42.5307692" width="61.7957746" height="44.9384615"></rect>
            <path d="M15.9929577,60.7538462 C14.584507,61.1076923 13.1760563,62.8769231 13.1760563,65 C13.1760563,66.9461538 14.584507,68.8923077 15.9929577,69.2461538 C17.5774648,69.6 24.0915493,71.3692308 24.0915493,71.3692308 L24.0915493,58.8076923 L15.9929577,60.7538462 Z M17.5774648,66.7692308 C16.6971831,66.7692308 15.9929577,66.0615385 15.9929577,65.1769231 C15.9929577,64.2923077 16.6971831,63.5846154 17.5774648,63.5846154 C18.4577465,63.5846154 19.1619718,64.2923077 19.1619718,65.1769231 C19.1619718,65.8846154 18.4577465,66.7692308 17.5774648,66.7692308 Z" id="Shape" fill="#252830" fill-rule="nonzero"></path>
            <path d="M134.65493,69.2461538 C136.06338,68.8923077 137.471831,67.1230769 137.471831,65 C137.471831,63.0538462 136.06338,61.1076923 134.65493,60.7538462 C133.070423,60.4 126.556338,58.6307692 126.556338,58.6307692 L126.556338,71.1923077 L134.65493,69.2461538 Z M133.070423,63.4076923 C133.950704,63.4076923 134.65493,64.1153846 134.65493,65 C134.65493,65.8846154 133.950704,66.5923077 133.070423,66.5923077 C132.190141,66.5923077 131.485915,65.8846154 131.485915,65 C131.485915,64.1153846 132.190141,63.4076923 133.070423,63.4076923 Z" id="Shape" fill="#252830" fill-rule="nonzero"></path>
            <ellipse id="Oval" fill="#0D0D0D" fill-rule="nonzero" cx="44.1619718" cy="65" rx="22.3591549" ry="22.4692308"></ellipse>
            <ellipse id="Oval" fill="#353535" fill-rule="nonzero" cx="44.1619718" cy="65" rx="22.3591549" ry="22.4692308"></ellipse>
            <ellipse id="Oval" fill="#D7D8D9" fill-rule="nonzero" cx="44.1619718" cy="65" rx="3.87323944" ry="3.89230769"></ellipse>
            <path d="M23.0352113,69.0692308 C21.9788732,63.5846154 23.0352113,57.7461538 26.556338,52.7923077 C33.2464789,43.0615385 46.6267606,40.5846154 56.4859155,47.3076923" id="Shape" stroke="#58595B" stroke-width="1.13572804" stroke-linecap="round" stroke-linejoin="round"></path>
            <path d="M55.7816901,76.8538462 C62.2957746,70.3076923 62.2957746,59.8692308 55.7816901,53.3230769 C49.2676056,46.7769231 38.8802817,46.7769231 32.3661972,53.3230769 C25.8521127,59.8692308 25.8521127,70.3076923 32.3661972,76.8538462 C38.8802817,83.4 49.443662,83.4 55.7816901,76.8538462 Z" id="Shape" stroke="#3F3F41" stroke-width="0.550000012" stroke-linecap="round" stroke-linejoin="round"></path>
            <path d="M33.7746479,75.6153846 C27.9647887,69.7769231 27.9647887,60.4 33.7746479,54.7384615 C39.584507,48.9 48.915493,48.9 54.5492958,54.7384615 C60.3591549,60.5769231 60.3591549,69.9538462 54.5492958,75.6153846 C48.7394366,81.2769231 39.4084507,81.2769231 33.7746479,75.6153846 Z" id="Shape" stroke="#3F3F41" stroke-width="0.550000012" stroke-linecap="round" stroke-linejoin="round"></path>
            <ellipse id="Oval" stroke="#3F3F41" stroke-width="0.550000012" stroke-linecap="round" stroke-linejoin="round" cx="44.1619718" cy="65" rx="12.8521127" ry="12.9153846"></ellipse>
            <path d="M36.2394366,72.9615385 C31.8380282,68.5384615 32.0140845,61.6384615 36.2394366,57.2153846 C40.6408451,52.7923077 47.5070423,52.7923077 51.9084507,57.2153846 C56.3098592,61.6384615 56.1338028,68.5384615 51.9084507,72.9615385 C47.6830986,77.2076923 40.6408451,77.2076923 36.2394366,72.9615385 Z" id="Shape" stroke="#3F3F41" stroke-width="0.550000012" stroke-linecap="round" stroke-linejoin="round"></path>
            <ellipse id="Oval" stroke="#3F3F41" stroke-width="0.550000012" stroke-linecap="round" stroke-linejoin="round" cx="44.1619718" cy="65" rx="9.15492958" ry="9.2"></ellipse>
            <path d="M38.8802817,70.3076923 C36.0633803,67.4769231 36.0633803,62.7 38.8802817,59.8692308 C41.6971831,57.0384615 46.4507042,57.0384615 49.2676056,59.8692308 C52.084507,62.7 52.084507,67.4769231 49.2676056,70.3076923 C46.4507042,73.1384615 41.8732394,73.1384615 38.8802817,70.3076923 Z" id="Shape" stroke="#3F3F41" stroke-width="0.550000012" stroke-linecap="round" stroke-linejoin="round"></path>
            <path d="M35.1830986,84.6384615 C45.9225352,89.5923077 58.7746479,84.8153846 63.7042254,74.0230769 C66.3450704,68.1846154 66.1690141,61.6384615 63.7042254,56.1538462" id="Shape" stroke="#303032" stroke-width="1.13572804" stroke-linecap="round" stroke-linejoin="round"></path>
            <ellipse id="Oval" fill="#0D0D0D" fill-rule="nonzero" cx="105.957746" cy="65" rx="22.3591549" ry="22.4692308"></ellipse>
            <ellipse id="Oval" fill="#353535" fill-rule="nonzero" cx="105.957746" cy="65" rx="22.3591549" ry="22.4692308"></ellipse>
            <ellipse id="Oval" fill="#D7D8D9" fill-rule="nonzero" cx="105.957746" cy="65" rx="3.87323944" ry="3.89230769"></ellipse>
            <path d="M84.8309859,69.0692308 C83.7746479,63.5846154 84.8309859,57.7461538 88.3521127,52.7923077 C95.0422535,43.0615385 108.422535,40.5846154 118.28169,47.3076923" id="Shape" stroke="#58595B" stroke-width="1.13572804" stroke-linecap="round" stroke-linejoin="round"></path>
            <path d="M117.753521,76.8538462 C124.267606,70.3076923 124.267606,59.8692308 117.753521,53.3230769 C111.239437,46.7769231 100.852113,46.7769231 94.3380282,53.3230769 C87.8239437,59.8692308 87.8239437,70.3076923 94.3380282,76.8538462 C100.676056,83.4 111.239437,83.4 117.753521,76.8538462 Z" id="Shape" stroke="#3F3F41" stroke-width="0.550000012" stroke-linecap="round" stroke-linejoin="round"></path>
            <path d="M95.5704225,75.6153846 C89.7605634,69.7769231 89.7605634,60.4 95.5704225,54.7384615 C101.380282,48.9 110.711268,48.9 116.34507,54.7384615 C122.15493,60.5769231 122.15493,69.9538462 116.34507,75.6153846 C110.535211,81.2769231 101.380282,81.2769231 95.5704225,75.6153846 Z" id="Shape" stroke="#3F3F41" stroke-width="0.550000012" stroke-linecap="round" stroke-linejoin="round"></path>
            <ellipse id="Oval" stroke="#3F3F41" stroke-width="0.550000012" stroke-linecap="round" stroke-linejoin="round" cx="105.957746" cy="65" rx="12.8521127" ry="12.9153846"></ellipse>
            <path d="M98.2112676,72.9615385 C93.8098592,68.5384615 93.9859155,61.6384615 98.2112676,57.2153846 C102.612676,52.7923077 109.478873,52.7923077 113.880282,57.2153846 C118.28169,61.6384615 118.105634,68.5384615 113.880282,72.9615385 C109.478873,77.2076923 102.43662,77.2076923 98.2112676,72.9615385 Z" id="Shape" stroke="#3F3F41" stroke-width="0.550000012" stroke-linecap="round" stroke-linejoin="round"></path>
            <ellipse id="Oval" stroke="#3F3F41" stroke-width="0.550000012" stroke-linecap="round" stroke-linejoin="round" cx="105.957746" cy="65" rx="9.15492958" ry="9.2"></ellipse>
            <path d="M100.676056,70.3076923 C97.8591549,67.4769231 97.8591549,62.7 100.676056,59.8692308 C103.492958,57.0384615 108.246479,57.0384615 111.06338,59.8692308 C113.880282,62.7 113.880282,67.4769231 111.06338,70.3076923 C108.246479,73.1384615 103.669014,73.1384615 100.676056,70.3076923 Z" id="Shape" stroke="#3F3F41" stroke-width="0.550000012" stroke-linecap="round" stroke-linejoin="round"></path>
            <path d="M96.9788732,84.6384615 C107.71831,89.5923077 120.570423,84.8153846 125.5,74.0230769 C128.140845,68.1846154 127.964789,61.6384615 125.5,56.1538462" id="Shape" stroke="#303032" stroke-width="1.13572804" stroke-linecap="round" stroke-linejoin="round"></path>
        </g>
    </g>
</svg>

<svg width="150" height="150" xmlns="http://www.w3.org/2000/svg"><g fill="none" fill-rule="evenodd"><path fill="#35363A" fill-rule="nonzero" d="M41 110.607h-2.957V119h-2.086v-8.393H33V109h8v1.607zm4.907 4.709h-1.674V119H42v-10h3.907c1.302 0 2.233.175 2.977.702.744.526.93 1.228.93 2.28 0 .702-.186 1.229-.558 1.755-.372.526-.744.877-1.489 1.052L50 118.825V119h-2.419l-1.674-3.684zm-1.674-1.58h1.674c.558 0 .93-.175 1.302-.35s.372-.702.372-1.053c0-.526-.186-.877-.372-1.052-.186-.176-.744-.351-1.302-.351h-1.674v2.807zM54 119h-2v-10h2zm44.263-4.286h-4.052v2.679H99V119h-7v-10h7v1.607h-4.79v2.5h4.053zm9.737.953a3.08 3.08 0 0 1-1.217 2.456c-.696.526-1.566.877-2.783.877-1.217 0-2.26-.35-2.957-1.228-.695-.877-1.043-2.105-1.043-3.509v-.526c0-.877.174-1.755.522-2.456.348-.702.87-1.228 1.391-1.755.522-.526 1.391-.526 2.087-.526 1.217 0 2.087.35 2.783.877.695.527 1.043 1.404 1.217 2.632h-2.087c0-.702-.174-1.053-.522-1.404-.348-.35-.695-.35-1.391-.35-.696 0-1.217.175-1.565.701-.348.526-.522 1.228-.522 2.28v.703c0 1.052.174 1.93.522 2.28.348.351.87.702 1.565.702.696 0 1.043-.175 1.391-.35.348-.176.522-.703.522-1.404H108zm9 3.333h-2.043v-4.21h-3.914V119H109v-10h2.043v4.035h3.914V109H117z"/><path fill="#252830" fill-rule="nonzero" d="M44.162 42.531h61.796v44.938H44.162zM15.993 60.754c-1.408.354-2.817 2.123-2.817 4.246 0 1.946 1.409 3.892 2.817 4.246 1.584.354 8.099 2.123 8.099 2.123V58.808l-8.099 1.946zm1.584 6.015c-.88 0-1.584-.707-1.584-1.592 0-.885.704-1.592 1.584-1.592.88 0 1.585.707 1.585 1.592 0 .708-.704 1.592-1.585 1.592zm117.078 2.477c1.408-.354 2.817-2.123 2.817-4.246 0-1.946-1.409-3.892-2.817-4.246-1.585-.354-8.099-2.123-8.099-2.123v12.561l8.099-1.946zm-1.585-5.838c.88 0 1.585.707 1.585 1.592 0 .885-.704 1.592-1.585 1.592-.88 0-1.584-.707-1.584-1.592 0-.885.704-1.592 1.584-1.592z"/><ellipse fill="#0D0D0D" fill-rule="nonzero" cx="44.162" cy="65" rx="22.359" ry="22.469"/><ellipse fill="#353535" fill-rule="nonzero" cx="44.162" cy="65" rx="22.359" ry="22.469"/><ellipse fill="#D7D8D9" fill-rule="nonzero" cx="44.162" cy="65" rx="3.873" ry="3.892"/><path d="M23.035 69.07c-1.056-5.485 0-11.324 3.521-16.278 6.69-9.73 20.07-12.207 29.93-5.484" stroke="#58595B" stroke-width="1.136" stroke-linecap="round" stroke-linejoin="round"/><path d="M55.782 76.854a16.61 16.61 0 0 0 0-23.53c-6.514-6.547-16.902-6.547-23.416 0a16.61 16.61 0 0 0 0 23.53c6.514 6.546 17.078 6.546 23.416 0z" stroke="#3F3F41" stroke-width=".55" stroke-linecap="round" stroke-linejoin="round"/><path d="M33.775 75.615c-5.81-5.838-5.81-15.215 0-20.877 5.81-5.838 15.14-5.838 20.774 0 5.81 5.839 5.81 15.216 0 20.877-5.81 5.662-15.14 5.662-20.774 0z" stroke="#3F3F41" stroke-width=".55" stroke-linecap="round" stroke-linejoin="round"/><ellipse stroke="#3F3F41" stroke-width=".55" stroke-linecap="round" stroke-linejoin="round" cx="44.162" cy="65" rx="12.852" ry="12.915"/><path d="M36.24 72.962c-4.402-4.424-4.226-11.324 0-15.747 4.4-4.423 11.267-4.423 15.668 0 4.402 4.423 4.226 11.323 0 15.747-4.225 4.246-11.267 4.246-15.669 0z" stroke="#3F3F41" stroke-width=".55" stroke-linecap="round" stroke-linejoin="round"/><ellipse stroke="#3F3F41" stroke-width=".55" stroke-linecap="round" stroke-linejoin="round" cx="44.162" cy="65" rx="9.155" ry="9.2"/><path d="M38.88 70.308c-2.817-2.831-2.817-7.608 0-10.439 2.817-2.83 7.57-2.83 10.388 0 2.817 2.831 2.817 7.608 0 10.439-2.817 2.83-7.395 2.83-10.388 0z" stroke="#3F3F41" stroke-width=".55" stroke-linecap="round" stroke-linejoin="round"/><path d="M35.183 84.638c10.74 4.954 23.592.177 28.521-10.615 2.641-5.838 2.465-12.385 0-17.87" stroke="#303032" stroke-width="1.136" stroke-linecap="round" stroke-linejoin="round"/><ellipse fill="#0D0D0D" fill-rule="nonzero" cx="105.958" cy="65" rx="22.359" ry="22.469"/><ellipse fill="#353535" fill-rule="nonzero" cx="105.958" cy="65" rx="22.359" ry="22.469"/><ellipse fill="#D7D8D9" fill-rule="nonzero" cx="105.958" cy="65" rx="3.873" ry="3.892"/><path d="M84.831 69.07c-1.056-5.485 0-11.324 3.521-16.278 6.69-9.73 20.07-12.207 29.93-5.484" stroke="#58595B" stroke-width="1.136" stroke-linecap="round" stroke-linejoin="round"/><path d="M117.754 76.854a16.61 16.61 0 0 0 0-23.53c-6.515-6.547-16.902-6.547-23.416 0a16.61 16.61 0 0 0 0 23.53c6.338 6.546 16.901 6.546 23.416 0z" stroke="#3F3F41" stroke-width=".55" stroke-linecap="round" stroke-linejoin="round"/><path d="M95.57 75.615c-5.81-5.838-5.81-15.215 0-20.877 5.81-5.838 15.141-5.838 20.775 0 5.81 5.839 5.81 15.216 0 20.877a14.828 14.828 0 0 1-20.775 0z" stroke="#3F3F41" stroke-width=".55" stroke-linecap="round" stroke-linejoin="round"/><ellipse stroke="#3F3F41" stroke-width=".55" stroke-linecap="round" stroke-linejoin="round" cx="105.958" cy="65" rx="12.852" ry="12.915"/><path d="M98.211 72.962c-4.401-4.424-4.225-11.324 0-15.747 4.402-4.423 11.268-4.423 15.67 0 4.4 4.423 4.225 11.323 0 15.747-4.402 4.246-11.444 4.246-15.67 0z" stroke="#3F3F41" stroke-width=".55" stroke-linecap="round" stroke-linejoin="round"/><ellipse stroke="#3F3F41" stroke-width=".55" stroke-linecap="round" stroke-linejoin="round" cx="105.958" cy="65" rx="9.155" ry="9.2"/><path d="M100.676 70.308c-2.817-2.831-2.817-7.608 0-10.439 2.817-2.83 7.57-2.83 10.387 0 2.817 2.831 2.817 7.608 0 10.439-2.817 2.83-7.394 2.83-10.387 0z" stroke="#3F3F41" stroke-width=".55" stroke-linecap="round" stroke-linejoin="round"/><path d="M96.979 84.638c10.74 4.954 23.591.177 28.521-10.615 2.64-5.838 2.465-12.385 0-17.87" stroke="#303032" stroke-width="1.136" stroke-linecap="round" stroke-linejoin="round"/></g></svg>
